Sources/FrostedUI/Resources/Icons.xcassets/checkmarkShield20.imageset/checkmark-shield-20.svg

<svg
  width="20"
  height="20"
  viewBox="0 0 20 20"
  fill="none"
  xmlns="http://www.w3.org/2000/svg"
  data-fui-icon="true"
>
  <path
    d="M6.75 10.75L9 13.25L13.25 8.75"
    stroke="currentColor"
    stroke-width="1.5"
    stroke-linecap="round"
    stroke-linejoin="round"
  />
  <path
    d="M9.05373 2.26636C7.6532 4.21738 5.1778 5.27798 3.78207 5.74707C3.18515 5.94768 2.75 6.49584 2.75 7.12556V8.04386C2.75 12.7937 5.17861 17.7088 9.69346 19.1842C9.82393 19.2268 9.92792 19.25 9.99993 19.25C10.0719 19.25 10.1759 19.2268 10.3064 19.1842C14.8213 17.7088 17.25 12.7937 17.25 8.04386V7.12558C17.25 6.49585 16.8148 5.94768 16.2179 5.74707C14.8221 5.27798 12.3467 4.21738 10.9461 2.26636C10.7247 1.95791 10.3796 1.75 9.99993 1.75C9.62022 1.75 9.27516 1.95791 9.05373 2.26636Z"
    stroke="currentColor"
    stroke-width="1.5"
    stroke-linecap="round"
    stroke-linejoin="round"
  />
</svg>

<svg xmlns="http://www.w3.org/2000/svg" width="20" height="20" fill="none" data-fui-icon="true" viewBox="0 0 20 20"><path stroke="currentColor" stroke-linecap="round" stroke-linejoin="round" stroke-width="1.5" d="M6.75 10.75 9 13.25l4.25-4.5"/><path stroke="currentColor" stroke-linecap="round" stroke-linejoin="round" stroke-width="1.5" d="M9.054 2.266c-1.4 1.951-3.876 3.012-5.272 3.481-.597.2-1.032.749-1.032 1.379v.918c0 4.75 2.429 9.665 6.943 11.14q.197.065.307.066.11 0 .306-.066c4.515-1.475 6.944-6.39 6.944-11.14v-.918c0-.63-.435-1.178-1.032-1.379-1.396-.469-3.871-1.53-5.272-3.48-.221-.31-.566-.517-.946-.517s-.725.208-.946.516"/></svg>
